src/img/projects/superbowlsearch.svg

<?xml version="1.0" encoding="UTF-8"?>
<svg width="90px" height="90px" viewBox="0 0 90 90" version="1.1" xmlns="http://www.w3.org/2000/svg" xmlns:xlink="http://www.w3.org/1999/xlink">
    <!-- Generator: Sketch 41.2 (35397) - http://www.bohemiancoding.com/sketch -->
    <title>community/card/logo/superbowlsearch</title>
    <desc>Created with Sketch.</desc>
    <defs></defs>
    <g id="Symbols" stroke="none" stroke-width="1" fill="none" fill-rule="evenodd">
        <g id="community/card/logo/superbowlsearch" fill="#FFFFFF">
            <path d="M28.9745702,74.8305474 L28.9745702,74.8305474 C24.985867,74.8305474 21.2464578,74.2073126 17.7563426,72.8361959 C17.3824016,72.7115489 17.1331077,72.4622549 17.0084607,72.088314 C11.8979348,58.8757348 16.7591668,41.6744524 29.0992172,29.209755 C38.1984463,20.2351729 49.6659679,15 60.7595485,15 C64.7482517,15 68.4876609,15.6232349 71.9777762,16.9943516 C72.2270701,17.2436455 72.4763641,17.4929395 72.601011,17.7422334 C77.711537,30.9548127 72.850305,48.156095 60.5102546,60.6207924 C51.5356725,69.5953745 40.0681509,74.8305474 28.9745702,74.8305474 L28.9745702,74.8305474 Z M39.3313351,48.8387813 L41.3297125,46.82793 L38.8308389,44.3290565 L40.5576217,42.6022736 L43.0511228,45.0957746 L45.040274,43.0942071 L42.6122516,40.6654977 L44.3392786,38.9389591 L46.7616852,41.3620509 L48.7742469,39.3369266 L46.259302,36.7753155 L48.0019582,35.0644061 L50.495852,37.6045753 L53.4251944,34.6569478 L55.1573498,36.3783582 L52.2068269,39.3472983 L54.5889596,41.7736327 L52.8463033,43.4845422 L50.4852219,41.0796496 L48.4882413,43.0890954 L50.9001255,45.5016619 L49.1730985,47.2282006 L46.7668302,44.8212516 L44.7779224,46.8225742 L47.1193966,49.1640485 L45.3926137,50.8908313 L43.056512,48.5547296 L41.04231,50.5815043 L43.3877287,52.9704435 L41.6450725,54.6813529 L39.320705,52.3138556 L36.4800478,55.1722443 L34.7478924,53.4508339 L37.6097301,50.5711326 L35.0580711,47.9721263 L36.8007273,46.2612168 L39.3313351,48.8387813 Z M31.8686921,71.5810201 C41.2070813,70.9304712 50.7651952,66.1941089 58.4802896,58.5908274 C66.3453975,50.6402292 70.9782879,40.6545311 71.540801,31.2739362 C68.2096872,30.9054779 65.0566261,29.3909387 62.631797,26.9661095 C59.6943461,24.2462476 58.6956228,20.7508946 58.3400657,18.121095 C48.836267,18.7389534 38.9845647,23.5064407 31.2512853,31.23972 C23.3637444,39.2129951 18.7870831,49.2329957 18.2398506,58.636863 C21.7322832,58.9160547 25.0569971,60.4553476 27.5881906,62.9865411 C29.9359835,65.334334 31.4443361,68.3350249 31.8686921,71.5810201 Z M29.4161615,71.657065 C29.3766453,71.6567411 29.3371363,71.6563413 29.2976348,71.6558653 C25.8787464,71.6558653 22.7040643,71.1674527 19.7735885,70.0685243 C18.7621244,67.2364248 18.2431197,64.2059737 18.1890548,61.0791553 C21.06251,61.3227588 23.7111298,62.5283688 25.8787464,64.6959853 C27.7631604,66.5803994 29.0192575,69.0033709 29.4161615,71.657065 Z M71.5944361,28.8288797 C71.5413629,25.6746408 71.0069413,22.6175113 69.9579864,19.7620232 C67.1234751,18.6990814 64.0604896,18.0930879 60.7690301,18.0545388 C61.0615282,20.2641365 62.0141085,23.0353114 64.3412412,25.2566653 C66.3986525,27.3140766 68.8894004,28.5048147 71.5944361,28.8288797 Z" id="icon"></path>
        </g>
    </g>
</svg>

<svg width="90" height="90" viewBox="0 0 90 90" xmlns="http://www.w3.org/2000/svg"><title>community/card/logo/superbowlsearch</title><path d="M28.975 74.83c-3.99 0-7.729-.623-11.219-1.994a1.124 1.124 0 0 1-.748-.748C11.898 58.876 16.76 41.674 29.1 29.21 38.2 20.235 49.666 15 60.76 15c3.99 0 7.729.623 11.219 1.994.25.25.498.499.623.748 5.11 13.213.25 30.414-12.09 42.879-8.975 8.974-20.443 14.21-31.536 14.21zM39.33 48.84l1.999-2.011-2.5-2.499 1.728-1.727 2.493 2.494 1.99-2.002-2.429-2.429 1.727-1.726 2.423 2.423 2.012-2.025-2.515-2.562 1.743-1.71 2.494 2.54 2.93-2.948 1.731 1.721-2.95 2.97 2.382 2.426-1.743 1.71-2.36-2.404-1.998 2.01 2.412 2.412-1.727 1.726-2.406-2.407-1.99 2.002 2.342 2.341-1.726 1.727-2.336-2.336-2.015 2.027 2.346 2.388-1.743 1.711-2.324-2.367-2.841 2.858-1.732-1.721 2.862-2.88-2.552-2.599 1.743-1.71 2.53 2.577zM31.87 71.58c9.338-.65 18.896-5.387 26.611-12.99 7.865-7.95 12.498-17.936 13.06-27.317-3.33-.369-6.483-1.883-8.908-4.308-2.938-2.72-3.936-6.215-4.292-8.845-9.504.618-19.355 5.385-27.089 13.119-7.887 7.973-12.464 17.993-13.011 27.397 3.492.28 6.817 1.818 9.348 4.35 2.348 2.347 3.856 5.348 4.28 8.594zm-2.453.076l-.118-.001c-3.42 0-6.594-.489-9.524-1.587-1.012-2.833-1.53-5.863-1.585-8.99 2.874.244 5.522 1.45 7.69 3.617 1.884 1.884 3.14 4.307 3.537 6.961zM71.594 28.83c-.053-3.154-.587-6.211-1.636-9.067a26.89 26.89 0 0 0-9.189-1.707c.293 2.21 1.245 4.98 3.572 7.202 2.058 2.057 4.548 3.248 7.253 3.572z" fill="#FFF" fill-rule="evenodd"/></svg>
